icons/evolvere-blue-folders-flat-vivid-dark-fallback/apps/64/WorldOfGoo.svg

<?xml version="1.0" encoding="UTF-8" standalone="no"?>
<!-- Created with Inkscape (http://www.inkscape.org/) -->

<svg
   xmlns:dc="http://purl.org/dc/elements/1.1/"
   xmlns:cc="http://creativecommons.org/ns#"
   xmlns:rdf="http://www.w3.org/1999/02/22-rdf-syntax-ns#"
   xmlns:svg="http://www.w3.org/2000/svg"
   xmlns="http://www.w3.org/2000/svg"
   xmlns:sodipodi="http://sodipodi.sourceforge.net/DTD/sodipodi-0.dtd"
   xmlns:inkscape="http://www.inkscape.org/namespaces/inkscape"
   width="64"
   height="64"
   id="svg13094"
   version="1.1"
   inkscape:version="0.48.4 r9939"
   sodipodi:docname="WorldOfGoo.svg">
  <sodipodi:namedview
     id="base"
     pagecolor="#ffffff"
     bordercolor="#666666"
     borderopacity="1.0"
     inkscape:pageopacity="0"
     inkscape:pageshadow="2"
     inkscape:zoom="11.313709"
     inkscape:cx="32.471862"
     inkscape:cy="31.872531"
     inkscape:document-units="px"
     inkscape:current-layer="svg13094"
     showgrid="true"
     inkscape:snap-bbox="true"
     inkscape:bbox-paths="true"
     inkscape:bbox-nodes="true"
     inkscape:snap-bbox-edge-midpoints="true"
     inkscape:snap-bbox-midpoints="true"
     inkscape:object-paths="true"
     inkscape:snap-intersection-paths="true"
     inkscape:object-nodes="true"
     inkscape:snap-smooth-nodes="true"
     inkscape:snap-midpoints="true"
     inkscape:snap-object-midpoints="true"
     inkscape:snap-center="true"
     showguides="true"
     inkscape:guide-bbox="true"
     inkscape:window-width="1920"
     inkscape:window-height="1025"
     inkscape:window-x="-2"
     inkscape:window-y="32"
     inkscape:window-maximized="1"
     inkscape:snap-global="true"
     fit-margin-top="0"
     fit-margin-left="0"
     fit-margin-right="0"
     fit-margin-bottom="0"
     showborder="true"
     inkscape:showpageshadow="false"
     inkscape:snap-page="true">
    <inkscape:grid
       type="xygrid"
       id="grid3075"
       empspacing="5"
       visible="true"
       enabled="true"
       snapvisiblegridlinesonly="true"
       originx="1.6362304e-08px"
       originy="18px" />
  </sodipodi:namedview>
  <defs
     id="defs13096" />
  <metadata
     id="metadata13099">
    <rdf:RDF>
      <cc:Work
         rdf:about="">
        <dc:format>image/svg+xml</dc:format>
        <dc:type
           rdf:resource="http://purl.org/dc/dcmitype/StillImage" />
        <dc:title />
      </cc:Work>
    </rdf:RDF>
  </metadata>
  <path
     style="color:#000000;fill:#bb561d;fill-opacity:1;fill-rule:nonzero;stroke:none;stroke-width:2.28571415000000000;marker:none;visibility:visible;display:inline;overflow:visible;enable-background:accumulate"
     d="M 0 4 L 0 34 L 0 62 L 2 64 L 32 64 L 62 64 L 64 62 L 64 34 L 64 4 L 32 4 L 0 4 z "
     id="path6498" />
  <path
     style="color:#000000;fill:#f48b2b;fill-opacity:1;fill-rule:nonzero;stroke:none;marker:none;visibility:visible;display:inline;overflow:visible;enable-background:accumulate"
     d="M 2 0 L 0 1 L 0 4 L 32 4 L 64 4 L 64 1 L 62 0 L 32 0 L 2 0 z "
     id="path6502" />
  <path
     style="color:#000000;fill:#ffc247;fill-opacity:1;fill-rule:nonzero;stroke:none;stroke-width:2.28571415000000000;marker:none;visibility:visible;display:inline;overflow:visible;enable-background:accumulate"
     d="M 2 0 L 0 1 L 0 4 L 12 4 L 12 0 L 2 0 z M 20 0 L 20 4 L 38 4 L 38 0 L 20 0 z M 51 0 L 51 4 L 64 4 L 64 1 L 62 0 L 51 0 z "
     id="path3983" />
  <g
     id="g3043"
     inkscape:export-filename="folder.png"
     inkscape:export-xdpi="90"
     inkscape:export-ydpi="90"
     transform="translate(-0.62500009,0.082283)" />
  <g
     id="scalable"
     transform="matrix(1.0385892,0,0,1.0385892,1214.7222,1878.8121)"
     inkscape:label="#g3701"
     style="fill:#ffffff" />
  <path
     style="color:#000000;fill:#db7d24;fill-opacity:1;fill-rule:nonzero;stroke:none;stroke-width:2.28571415000000000;marker:none;visibility:visible;display:inline;overflow:visible;enable-background:accumulate"
     d="M 0 4 L 0 34 L 0 37.28125 L 18.65625 64 L 22.5 64 L 26.0625 64 C 25.034954 58.796762 12 4 12 4 L 0 4 z M 20 4 L 27.9375 64 L 35.15625 64 L 38 4 L 32 4 L 20 4 z M 51 4 L 35.875 64 L 39 64 L 40.25 64 L 64 14.84375 L 64 4 L 51 4 z M 64 27.125 C 55.101554 41.926188 43.852951 60.748852 42.25 64 L 45.6875 64 L 64 37.09375 L 64 34 L 64 27.125 z M 64 50 L 47.8125 64 L 48.71875 64 L 62 64 L 64 62 L 64 50 z M 0 52.59375 L 0 62 L 0.875 62.875 L 3.8125 64 L 16.5 64 L 17.59375 64 L 0 52.59375 z "
     id="path3001" />
  <path
     style="fill:#323232;fill-opacity:1"
     d="m 32.014568,16.298589 c -6.688949,0.177015 -13.430621,3.485717 -17.228926,9.069997 -2.591791,3.904885 -3.025493,8.841907 -2.475259,13.385939 1.20026,7.218769 7.261824,13.117161 14.35731,14.603962 5.125972,1.133338 10.629256,0.595015 15.459511,-1.44372 4.54719,-2.073001 7.959377,-6.3838 8.898157,-11.298573 1.132593,-4.794388 1.31076,-10.163358 -1.326906,-14.522453 -3.519537,-6.229719 -10.611962,-9.876987 -17.683887,-9.795152 z"
     id="Ball"
     inkscape:connector-curvature="0" />
  <g
     transform="matrix(0.08504132,0,0,0.08504132,10.326374,13.080307)"
     style="display:inline"
     id="RightEye">
    <path
       inkscape:connector-curvature="0"
       id="RightEyeball"
       d="m 409.19363,88.1875 c -15.36029,0.795193 -31.39875,4.320763 -42.77519,15.4138 -15.94847,15.15035 -22.14371,37.35999 -26.71006,58.18575 -6.64716,30.35134 3.69727,63.33559 25.98204,84.87244 18.74926,19.27966 46.56532,31.05429 73.55035,25.79567 20.36216,-3.88436 40.64876,-14.50194 51.73561,-32.55559 11.37406,-22.80089 12.79623,-49.70558 7.86013,-74.41142 -4.03184,-16.02573 -11.09247,-31.49419 -20.97336,-44.8122 -2.13199,-2.87361 -4.39528,-5.6471 -6.78777,-8.30447 C 459.10059,99.056331 442.04458,91.211602 424.3768,89.225598 419.35176,88.435586 414.25825,88.502113 409.19363,88.1875 z"
       style="fill:#e5dad7;fill-opacity:1;fill-rule:evenodd;stroke:none;stroke-width:1;marker:none;visibility:visible;display:inline;overflow:visible;enable-background:accumulate" />
    <path
       inkscape:connector-curvature="0"
       id="RightPupil"
       d="m 448.16333,153.80736 c -5.73901,0.0561 -11.54103,2.01618 -15.67878,6.09634 -9.09735,8.83551 -11.04817,24.18904 -4.33552,34.97168 4.95216,7.89872 15.10998,11.95384 24.16772,9.9503 6.38423,-1.35193 12.7527,-4.53428 16.27271,-10.25295 6.192,-9.88887 4.6141,-23.49466 -2.5154,-32.47989 -4.23353,-5.42451 -11.01079,-8.66901 -17.91073,-8.28548 z"
       style="fill:#070402;fill-opacity:1;fill-rule:evenodd;stroke:none;stroke-width:1;marker:none;visibility:visible;display:inline;overflow:visible;enable-background:accumulate" />
    <path
       inkscape:connector-curvature="0"
       id="path33"
       d="m 448.16333,153.80736 c -5.73901,0.0561 -11.54103,2.01618 -15.67878,6.09634 -9.09735,8.83551 -11.04817,24.18904 -4.33552,34.97168 4.95216,7.89872 15.10998,11.95384 24.16772,9.9503 6.38423,-1.35193 12.7527,-4.53428 16.27271,-10.25295 6.192,-9.88887 4.6141,-23.49466 -2.5154,-32.47989 -4.23353,-5.42451 -11.01079,-8.66901 -17.91073,-8.28548 z"
       style="fill:#3b3b3b;fill-opacity:1;fill-rule:evenodd;stroke:none;stroke-width:1;marker:none;visibility:visible;display:inline;overflow:visible;enable-background:accumulate" />
  </g>
  <g
     transform="matrix(0.08504132,0,0,0.08504132,10.326374,13.080307)"
     style="display:inline"
     id="LeftEye">
    <path
       inkscape:connector-curvature="0"
       id="LeftEyeball"
       d="M 124.59225,72.375 C 88.997636,72.966907 57.637185,96.799345 38.82498,125.74075 25.555236,146.7484 16.668409,171.10631 15.465647,196.0202 c 0.249391,21.21401 4.9479,42.67518 14.129282,61.77591 14.028199,21.56591 35.554098,39.84389 61.111539,45.46573 21.122582,3.82527 43.698292,0.56293 62.086992,-10.88082 45.50499,-25.18652 69.55778,-79.09689 66.53551,-129.89716 -1.52115,-23.78838 -7.69362,-49.992 -27.6007,-65.238828 -17.07498,-13.483607 -38.27174,-21.805408 -59.77853,-24.508699 -2.44965,-0.173644 -4.90407,-0.2622 -7.35749,-0.361333 z"
       style="fill:#e5dad7;fill-opacity:1;fill-rule:evenodd;stroke:none;stroke-width:1;marker:none;visibility:visible;display:inline;overflow:visible;enable-background:accumulate" />
    <path
       inkscape:connector-curvature="0"
       id="LeftPupil"
       d="m 90.507095,153.18236 c -5.745992,-0.1256 -11.227545,2.31775 -15.960062,5.37289 -9.105939,6.39737 -12.432592,18.71139 -10.020154,29.25603 1.854516,9.0925 8.495879,17.43833 17.656787,19.88449 8.678159,2.58768 18.659974,0.33409 25.198424,-5.98216 6.74951,-5.22726 9.88982,-14.21456 8.65206,-22.5629 -1.45605,-10.9858 -8.87972,-21.64794 -19.705892,-25.04783 -1.886293,-0.57036 -3.850475,-0.88518 -5.821163,-0.92052 z"
       style="fill:#3b3b3b;fill-opacity:1;fill-rule:evenodd;stroke:none;stroke-width:1;marker:none;visibility:visible;display:inline;overflow:visible;enable-background:accumulate" />
  </g>
  <path
     style="fill:#ffcd67;fill-opacity:1;fill-rule:nonzero"
     d="M 0,3 0,6 2,4 z"
     id="path4298"
     inkscape:connector-curvature="0"
     sodipodi:nodetypes="cccc" />
  <path
     d="M 64,6 62,4 64,3 z"
     id="path3028"
     style="fill:#ec9d35;fill-opacity:1"
     inkscape:connector-curvature="0" />
</svg>

<svg xmlns="http://www.w3.org/2000/svg" viewBox="0 0 64 64"><g color="#000"><path d="m0 4v30 28l2 2h30 30l2-2v-28-30h-32-32" fill="#bb561d"/><path d="m2 0l-2 1v3h32 32v-3l-2-1h-30-30" fill="#f48b2b"/><path d="m2 0l-2 1v3h12v-4h-10m18 0v4h18v-4h-18m31 0v4h13v-3l-2-1h-11" fill="#ffc247"/><path d="m0 4v30 3.281l18.656 26.719h3.844 3.563c-1.028-5.203-14.06-60-14.06-60h-12m20 0l7.938 60h7.219l2.844-60h-6-12m31 0l-15.12 60h3.125 1.25l23.75-49.16v-10.844h-13m13 23.13c-8.898 14.801-20.15 33.624-21.75 36.875h3.438l18.313-26.906v-3.094-6.875m0 22.875l-16.188 14h.906 13.281l2-2v-12m-64 2.594v9.406l.875.875 2.938 1.125h12.688 1.094l-17.594-11.406" fill="#db7d24"/></g><path d="m32.01 16.299c-6.689.177-13.431 3.486-17.229 9.07-2.592 3.905-3.03 8.842-2.475 13.386 1.2 7.219 7.262 13.12 14.357 14.604 5.126 1.133 10.629.595 15.46-1.444 4.547-2.073 7.959-6.384 8.898-11.299 1.133-4.794 1.311-10.163-1.327-14.522-3.52-6.23-10.612-9.877-17.684-9.795" fill="#323232"/><g transform="matrix(.08504 0 0 .08504 10.326 13.08)" fill-rule="evenodd"><path d="m409.19 88.19c-15.36.795-31.399 4.321-42.775 15.414-15.948 15.15-22.14 37.36-26.71 58.19-6.647 30.351 3.697 63.34 25.982 84.87 18.749 19.28 46.565 31.05 73.55 25.796 20.362-3.884 40.649-14.502 51.736-32.556 11.374-22.801 12.796-49.706 7.86-74.41-4.03-16.03-11.09-31.494-20.973-44.812-2.132-2.874-4.395-5.647-6.788-8.304-11.975-13.315-29.03-21.16-46.699-23.15-5.03-.79-10.119-.723-15.183-1.038" fill="#e5dad7"/><path d="m448.16 153.81c-5.739.056-11.541 2.02-15.679 6.096-9.1 8.836-11.05 24.19-4.336 34.972 4.952 7.899 15.11 11.954 24.17 9.95 6.384-1.352 12.753-4.534 16.273-10.253 6.192-9.889 4.614-23.495-2.515-32.48-4.234-5.425-11.01-8.669-17.911-8.285" fill="#070402"/><path d="m448.16 153.81c-5.739.056-11.541 2.02-15.679 6.096-9.1 8.836-11.05 24.19-4.336 34.972 4.952 7.899 15.11 11.954 24.17 9.95 6.384-1.352 12.753-4.534 16.273-10.253 6.192-9.889 4.614-23.495-2.515-32.48-4.234-5.425-11.01-8.669-17.911-8.285" fill="#3b3b3b"/></g><g transform="matrix(.08504 0 0 .08504 10.326 13.08)" fill-rule="evenodd"><path d="m124.59 72.38c-35.595.592-66.955 24.424-85.77 53.37-13.27 21.01-22.16 45.37-23.359 70.28.249 21.21 4.948 42.675 14.13 61.776 14.03 21.566 35.554 39.844 61.11 45.47 21.12 3.825 43.698.563 62.09-10.881 45.505-25.19 69.56-79.1 66.54-129.9-1.521-23.788-7.694-49.992-27.601-65.24-17.07-13.484-38.27-21.805-59.779-24.509-2.45-.174-4.904-.262-7.357-.361" fill="#e5dad7"/><path d="m90.51 153.18c-5.746-.126-11.228 2.318-15.96 5.373-9.106 6.397-12.433 18.711-10.02 29.26 1.855 9.09 8.496 17.438 17.657 19.884 8.678 2.588 18.66.334 25.2-5.982 6.75-5.227 9.89-14.215 8.652-22.563-1.456-10.986-8.88-21.648-19.706-25.05-1.886-.57-3.85-.885-5.821-.921" fill="#3b3b3b"/></g><path d="m0 3v3l2-2z" fill="#ffcd67"/><path d="m64 6l-2-2 2-1z" fill="#ec9d35"/></svg>
